X:187
T:Childgrove
C:Henry Playford, 1701
S:Colin Hume's website,  colinhume.com  - chords can also be printed below the stave.
Q:1/2=112
M:2/2
R:Reel
L:1/8
K:Dm
P:A
%%MIDI program 71       % Clarinet
%%MIDI chordprog 41     % Viola
%%MIDI bassprog 41      % Viola
V:1
|: "Dm"A2d2 d2e2 | "/"f4 e2d2 | "Gm"g2f2 e2d2 | "Am"e3d cBA2 |\
"Dm"A2d2 d2e2 | "Dm"f4 "C"e2a2 | "Gm"g3f "A7"efed |1 "Dm"d8 :|2 "Dm"d6 ||
V:2 bass octave=-2
%%MIDI program 42       % Cello
|: d4 d2A2 | d4 d2A2 | G4 G2d2 | A4 A2e2 |\
d4 d2A2 | d4 c2e2 | g4 a4 |1 d4 d2A2 :|2 d4 d2 ||
P:B
V:1
|: fg | "F"a2f2 f2a2 | "C/E"g2e2 e2g2 | "Dm"f2d2 defd | "A7/C#"e2 A4 fg |\
"F"a2f2 f2a2 | "Gm"g3f efge | "Dm"f2ed "A7"e2d^c | "Dm"d6 :|
V:2
|: z2 | f2c2 a2f2 | e2c2 g2e2 | d2a2 f2d2 | A2^c2 e2a2 |\
f2c2 a2f2 | G2A2 B2c2 | d4 A2A2 | d4 d2 :|

